book-lock-outline.svg

<svg fill="currentColor" viewBox="0 0 24 24"><path d="M13 20.7c0 .46.1.9.27 1.3H6c-1.11 0-2-.89-2-2V4a2 2 0 0 1 2-2h12a2 2 0 0 1 2 2v6.11c-.32-.07-.66-.11-1-.11s-.68.04-1 .11V4h-5v8l-2.5-2.25L8 12V4H6v16h7zm10-3.4v3.5c0 .6-.6 1.2-1.3 1.2h-5.5c-.6 0-1.2-.6-1.2-1.3v-3.5c0-.6.6-1.2 1.2-1.2v-1.5c0-1.4 1.4-2.5 2.8-2.5s2.8 1.1 2.8 2.5V16c.6 0 1.2.6 1.2 1.3m-2.5-2.8c0-.8-.7-1.3-1.5-1.3s-1.5.5-1.5 1.3V16h3z"/></svg>

<svg  viewBox="0 0 24 24" fill="currentColor"><path  d="M13 20.7C13 21.16 13.1 21.6 13.27 22H6C4.89 22 4 21.11 4 20V4C4 2.9 4.89 2 6 2H18C19.11 2 20 2.9 20 4V10.11C19.68 10.04 19.34 10 19 10S18.32 10.04 18 10.11V4H13V12L10.5 9.75L8 12V4H6V20H13V20.7M23 17.3V20.8C23 21.4 22.4 22 21.7 22H16.2C15.6 22 15 21.4 15 20.7V17.2C15 16.6 15.6 16 16.2 16V14.5C16.2 13.1 17.6 12 19 12S21.8 13.1 21.8 14.5V16C22.4 16 23 16.6 23 17.3M20.5 14.5C20.5 13.7 19.8 13.2 19 13.2S17.5 13.7 17.5 14.5V16H20.5V14.5Z"/></svg>
